article/lines/Lines V2.svg

<?xml version="1.0" encoding="UTF-8"?>
<svg width="301px" height="85px" viewBox="0 0 301 85" version="1.1" xmlns="http://www.w3.org/2000/svg" xmlns:xlink="http://www.w3.org/1999/xlink">
    <!-- Generator: Sketch Beta 62 (91388) - https://sketch.com -->
    <title>Lines V2</title>
    <desc>Created with Sketch Beta.</desc>
    <g id="Lines-V2" stroke="none" stroke-width="1" fill="none" fill-rule="evenodd">
        <path d="M9.33022354,0.0794949366 L29.2262235,19.9754949 L29.227161,81.3491534 L38.602161,80.9975909 C53.7193485,80.3530597 59.1099735,76.3100909 62.274036,60.6655597 L65.0279423,60.6655597 L64.2662235,84.6889972 L0.516223541,84.6889972 L0.516223541,81.8179034 C7.13731729,80.5874347 8.42637979,79.1811847 8.42637979,73.9077472 L8.42637979,10.8608722 C8.42637979,5.58743466 7.19591104,4.18118466 0.516223541,2.95071591 L0.516223541,0.0796221622 L9.33022354,0.0794949366 Z M96.024036,25.6850909 L96.024036,75.3725909 C96.024036,79.5913409 97.0787235,80.8218097 102.762317,81.8179034 L102.762317,84.6889972 L70.008411,84.6889972 L70.008411,81.8179034 C75.6920048,80.8218097 76.7466923,79.5913409 76.7466923,75.3725909 L76.7466923,38.2241534 C76.7466923,34.4155597 76.2779423,33.5952472 72.9966923,32.4819659 L70.008411,31.5444659 L70.008411,28.8491534 L96.024036,25.6850909 Z M133.641224,25.6850909 L133.641224,36.5835284 C135.967891,31.2787263 141.029255,27.3043169 148.003549,25.8929502 L173.719224,51.6094949 L173.719349,75.3725909 C173.719349,79.5913409 174.715442,80.8218097 180.516224,81.8179034 L180.516224,84.6889972 L148.641224,84.6889972 L148.641224,81.8179034 C153.621692,80.9389972 154.500599,79.8257159 154.500599,75.7241534 L154.500599,45.1382159 C154.500599,37.2866534 150.633411,33.3608722 144.012317,33.3608722 C139.20763,33.3608722 135.516224,35.5874347 133.758411,38.8686847 L133.758411,75.7241534 C133.758411,79.8257159 134.52013,80.8804034 139.617786,81.8179034 L139.617786,84.6889972 L107.742786,84.6889972 L107.742786,81.8179034 C113.42638,80.8218097 114.481067,79.5913409 114.481067,75.3725909 L114.481067,38.2241534 C114.481067,34.4155597 114.012317,33.5952472 110.731067,32.4819659 L107.742786,31.5444659 L107.742786,28.8491534 L133.641224,25.6850909 Z M217.161065,24.1616534 C233.391534,24.1616534 243.118096,34.1811847 243.118096,48.7124347 C243.118096,50.2358722 242.942315,51.7593097 242.825127,52.7554034 L206.438409,52.7554034 C208.02044,67.9897784 216.633721,76.6030597 228.411065,76.6030597 C234.153252,76.6030597 239.075127,74.4350909 242.004815,71.4468097 L242.063409,74.3179034 C237.786065,80.7632159 228.879815,84.6889972 217.981377,84.6889972 C200.52044,84.6889972 186.750909,73.1460284 186.750909,54.5132159 C186.750909,51.6224268 187.07036,48.8705295 187.683716,46.2885803 L187.940386,46.0315293 L187.784681,45.8756373 C191.078171,32.7795827 202.005406,24.1616534 217.161065,24.1616534 Z M278.42638,24.2788409 C282.391978,24.2788409 286.028935,24.6759483 289.085702,25.2914308 L296.678224,32.8854949 L296.824817,41.3296222 L294.070911,41.3296222 C292.078724,32.7163409 286.277942,28.0874347 278.660755,28.0874347 C272.039661,28.0874347 268.11388,31.1929034 268.11388,35.8804034 C268.11388,40.3921222 271.512317,42.7358722 278.309192,44.7866534 L283.231067,46.2514972 C294.598255,49.7085284 300.399036,55.5093097 300.399036,65.2358722 C300.399036,77.4233722 289.031849,84.6889972 273.328724,84.6889972 C264.83263,84.6889972 256.746692,82.6382159 251.883411,79.8843097 L251.297474,64.8843097 L254.05138,64.8843097 C256.39513,74.3179034 263.660755,80.8218097 272.977161,80.8218097 C280.125599,80.8218097 284.168567,77.3647784 284.168567,72.4429034 C284.168567,67.8139972 281.297474,65.1186847 274.266224,62.9507159 L269.344349,61.4858722 C258.504505,58.2046222 251.883411,52.6968097 251.883411,43.3218097 C251.883411,31.7202472 261.785755,24.2788409 278.42638,24.2788409 Z M217.161065,28.0288409 C210.188409,28.0288409 206.204034,35.0600909 206.204034,47.5991534 L206.204034,49.4155597 L206.204034,49.4155597 L226.125909,49.1811847 C226.184502,48.0679034 226.184502,46.8374347 226.184502,45.1382159 C226.184502,34.7085284 223.372002,28.0288409 217.161065,28.0288409 Z M79.2974392,2.58064385 L91.7627991,15.0454176 C90.1271485,16.6677516 87.8302792,17.6577472 85.3013798,17.6577472 C80.320911,17.6577472 76.336536,13.9077472 76.336536,9.04446591 C76.336536,6.412603 77.4758032,4.13257259 79.2974392,2.58064385 Z" id="Combined-Shape" fill="#FFFFFF" fill-rule="nonzero"></path>
    </g>
</svg>

<svg xmlns="http://www.w3.org/2000/svg" width="301" height="85" viewBox="0 0 301 85"><title>Lines V2</title><path fill="#FFF" fill-rule="nonzero" d="M9.33.08l19.896 19.895.001 61.374 9.375-.351c15.117-.645 20.508-4.688 23.672-20.332h2.754l-.762 24.023H.516v-2.871c6.621-1.23 7.91-2.637 7.91-7.91V10.86c0-5.274-1.23-6.68-7.91-7.91V.08H9.33zm86.694 25.605v49.688c0 4.218 1.055 5.449 6.738 6.445v2.871H70.008v-2.871c5.684-.996 6.739-2.227 6.739-6.445V38.224c0-3.808-.47-4.629-3.75-5.742l-2.989-.938V28.85l26.016-3.164zm37.617 0v10.899c2.327-5.305 7.388-9.28 14.363-10.691l25.715 25.716v23.764c0 4.218.996 5.449 6.797 6.445v2.871h-31.875v-2.871c4.98-.879 5.86-1.992 5.86-6.094V45.138c0-7.851-3.868-11.777-10.489-11.777-4.804 0-8.496 2.226-10.254 5.508v36.855c0 4.102.762 5.156 5.86 6.094v2.871h-31.875v-2.871c5.683-.996 6.738-2.227 6.738-6.445V38.224c0-3.808-.469-4.629-3.75-5.742l-2.988-.938V28.85l25.898-3.164zm83.52-1.523c16.23 0 25.957 10.02 25.957 24.55 0 1.524-.176 3.047-.293 4.043h-36.387c1.582 15.235 10.196 23.848 21.973 23.848 5.742 0 10.664-2.168 13.594-5.156l.058 2.87c-4.277 6.446-13.183 10.372-24.082 10.372-17.46 0-31.23-11.543-31.23-30.176 0-2.89.32-5.642.933-8.224l.256-.257-.155-.156c3.293-13.096 14.22-21.714 29.376-21.714zm61.265.117c3.966 0 7.603.397 10.66 1.012l7.592 7.594.147 8.445h-2.754c-1.992-8.614-7.793-13.243-15.41-13.243-6.621 0-10.547 3.106-10.547 7.793 0 4.512 3.398 6.856 10.195 8.907l4.922 1.464C294.598 49.71 300.4 55.51 300.4 65.236c0 12.187-11.367 19.453-27.07 19.453-8.496 0-16.582-2.05-21.446-4.805l-.586-15h2.754c2.344 9.434 9.61 15.938 18.926 15.938 7.149 0 11.192-3.457 11.192-8.38 0-4.628-2.872-7.323-9.903-9.491l-4.922-1.465c-10.84-3.281-17.46-8.79-17.46-18.164 0-11.602 9.902-19.043 26.542-19.043zm-61.265 3.75c-6.973 0-10.957 7.031-10.957 19.57v1.817l19.922-.235c.059-1.113.059-2.344.059-4.043 0-10.43-2.813-17.11-9.024-17.11zM79.297 2.58l12.466 12.464c-1.636 1.623-3.933 2.613-6.462 2.613-4.98 0-8.964-3.75-8.964-8.614 0-2.631 1.139-4.911 2.96-6.463z"/></svg>
